X:2020
T:Brighton Camp
T:The Girl I Left Behind Me
R:March
C:Trad.
O:England
M:4/4
L:1/4
Q:1/4=160
K:G
g/f/|"G"ed/c/ BA|"C"BG E>F|"G"GG G/A/B/c/|"D7"d2 Bg/f/|"G"ed/c/ BA|"C"BG E>G|"D7"FA DE/F/|"G"G2 G:|
|:d/c/|"G"Bd "D7"ef|"G"gd "D7"B>A|"G"Bd "Em"ef|"C"g2 "D7"fg/f/|"G"ed/c/ BA|"C"BG E>G|"D7"FA DE/F/|"G"G2 G:|

